src/topics/icons/protoio.svg

<svg height="256" preserveAspectRatio="xMidYMid" viewBox="0 0 256 256" width="256" xmlns="http://www.w3.org/2000/svg"><g fill="#35a7c1"><path d="m127.792005 0c-70.5795243 0-127.792005 57.2224201-127.792005 127.790585 0 70.568165 57.2124807 127.793425 127.792005 127.793425 70.578105 0 127.793425-57.21532 127.793425-127.793425 0-70.5781043-57.21532-127.790585-127.793425-127.790585m0 234.288183c-58.8169801 0-106.4961773-47.679197-106.4961773-106.497598 0-58.8155601 47.6791972-106.4947573 106.4961773-106.4947573 58.815561 0 106.493338 47.7090153 106.493338 106.4947573.00142 58.785743-47.709015 106.494758-106.493338 106.494758"/><path d="m158.848302 127.792005c0-30.1347745-11.82502-57.4865234-31.054877-77.7358766-19.232697 20.2294745-31.0974744 47.63376-31.0974744 77.7358766 0 13.773139 2.5558401 26.978312 7.0995554 39.215107-6.5827077 9.601439-11.4430637 23.052258-13.5757702 38.52077 6.7914351-8.038117 15.1376732-13.927909 24.3926542-16.833047 3.873517 5.963627 8.235485 11.643272 13.205174 16.833047 4.911472-5.172736 9.327396-10.809784 13.199494-16.833047 9.257821 2.839822 17.606898 8.803449 24.422472 16.896943-2.134127-15.468512-6.993063-28.919331-13.575771-38.52077 4.48124-12.300691 7.024301-25.505864 7.024301-39.279003m-31.094635.283982c-7.744195 0-14.021623-6.277427-14.021623-14.020202 0-7.741356 6.277428-14.017364 14.021623-14.017364 7.742776 0 14.057121 6.24761 14.057121 14.057121-.038338 7.590845-6.249029 13.980445-14.058541 13.980445"/></g></svg>

<?xml version="1.0" encoding="UTF-8" standalone="no"?>
<svg width="256px" height="256px" viewBox="0 0 256 256" version="1.1" xmlns="http://www.w3.org/2000/svg" xmlns:xlink="http://www.w3.org/1999/xlink" preserveAspectRatio="xMidYMid">
	<g fill="#35A7C1">
		<path d="M127.792005,0 C57.2124807,0 0,57.2224201 0,127.790585 C0,198.35875 57.2124807,255.58401 127.792005,255.58401 C198.37011,255.58401 255.58543,198.36869 255.58543,127.790585 C255.58543,57.2124807 198.37011,0 127.792005,0 M127.792005,234.288183 C68.9750249,234.288183 21.2958277,186.608986 21.2958277,127.790585 C21.2958277,68.9750249 68.9750249,21.2958277 127.792005,21.2958277 C186.607566,21.2958277 234.285343,69.004843 234.285343,127.790585 C234.286763,186.576328 186.576328,234.285343 127.792005,234.285343"></path>
		<path d="M158.848302,127.792005 C158.848302,97.6572305 147.023282,70.3054816 127.793425,50.0561284 C108.560728,70.2856029 96.6959506,97.6898884 96.6959506,127.792005 C96.6959506,141.565144 99.2517907,154.770317 103.795506,167.007112 C97.2127983,176.608551 92.3524423,190.05937 90.2197358,205.527882 C97.0111709,197.489765 105.357409,191.599973 114.61239,188.694835 C118.485907,194.658462 122.847875,200.338107 127.817564,205.527882 C132.729036,200.355146 137.14496,194.718098 141.017058,188.694835 C150.274879,191.534657 158.623956,197.498284 165.43953,205.591778 C163.305403,190.123266 158.446467,176.672447 151.863759,167.071008 C156.344999,154.770317 158.88806,141.565144 158.88806,127.792005 M127.793425,128.075987 C120.04923,128.075987 113.771802,121.79856 113.771802,114.055785 C113.771802,106.314429 120.04923,100.038421 127.793425,100.038421 C135.536201,100.038421 141.850546,106.286031 141.850546,114.095542 C141.812208,121.686387 135.601517,128.075987 127.792005,128.075987"></path>
	</g>
</svg>
